static/img/kyve-icon.svg

<svg width="50" height="50" viewBox="0 0 50 50" fill="none" xmlns="http://www.w3.org/2000/svg">
<g clip-path="url(#clip0_925_2302)">
<path d="M50 25C50 11.1929 38.8071 0 25 0C11.1929 0 0 11.1929 0 25C0 38.8071 11.1929 50 25 50C38.8071 50 50 38.8071 50 25Z" fill="url(#paint0_linear_925_2302)"/>
<path d="M37.4456 35.9303L31.0799 35.9462L24.8149 29.1088L28.0287 25.7332L37.4456 35.9303Z" fill="url(#paint1_linear_925_2302)"/>
<path d="M19.7389 14.0645V24.318L15.2266 19.532V14.0645H19.7389Z" fill="url(#paint2_linear_925_2302)"/>
<path d="M19.7333 34.4466L19.7389 35.9463H15.2266V29.667L19.7333 34.4466Z" fill="url(#paint3_linear_925_2302)"/>
<path d="M37.5449 14.0625L19.7373 32.7675L12.484 25.0749V18.307L19.8074 26.0741L31.1329 14.0625H37.5449Z" fill="#58C6B2"/>
</g>
<defs>
<linearGradient id="paint0_linear_925_2302" x1="25" y1="-51.3139" x2="25" y2="51.2982" gradientUnits="userSpaceOnUse">
<stop stop-color="#58C6B2"/>
<stop offset="1" stop-color="#252B2E"/>
</linearGradient>
<linearGradient id="paint1_linear_925_2302" x1="31.1073" y1="32.3823" x2="26.3553" y2="26.4427" gradientUnits="userSpaceOnUse">
<stop stop-color="white"/>
<stop offset="1" stop-color="white" stop-opacity="0"/>
</linearGradient>
<linearGradient id="paint2_linear_925_2302" x1="17.4827" y1="16.747" x2="17.4827" y2="24.318" gradientUnits="userSpaceOnUse">
<stop stop-color="white"/>
<stop offset="1" stop-color="#EEEEEE" stop-opacity="0"/>
</linearGradient>
<linearGradient id="paint3_linear_925_2302" x1="17.4827" y1="29.667" x2="17.4827" y2="34.5283" gradientUnits="userSpaceOnUse">
<stop stop-color="white" stop-opacity="0"/>
<stop offset="1" stop-color="#FAFAFA"/>
</linearGradient>
<clipPath id="clip0_925_2302">
<rect width="50" height="50" fill="white"/>
</clipPath>
</defs>
</svg>

<svg xmlns="http://www.w3.org/2000/svg" width="50" height="50" fill="none"><g clip-path="url(#a)"><path fill="url(#b)" d="M50 25C50 11.193 38.807 0 25 0S0 11.193 0 25s11.193 25 25 25 25-11.193 25-25"/><path fill="url(#c)" d="m37.446 35.93-6.366.016-6.265-6.837 3.214-3.376z"/><path fill="url(#d)" d="M19.739 14.065v10.253l-4.512-4.786v-5.467z"/><path fill="url(#e)" d="m19.733 34.447.006 1.5h-4.512v-6.28z"/><path fill="#58C6B2" d="M37.545 14.063 19.737 32.767l-7.253-7.692v-6.768l7.323 7.767 11.326-12.012z"/></g><defs><linearGradient id="b" x1="25" x2="25" y1="-51.314" y2="51.298" gradientUnits="userSpaceOnUse"><stop stop-color="#58C6B2"/><stop offset="1" stop-color="#252B2E"/></linearGradient><linearGradient id="c" x1="31.107" x2="26.355" y1="32.382" y2="26.443" gradientUnits="userSpaceOnUse"><stop stop-color="#fff"/><stop offset="1" stop-color="#fff" stop-opacity="0"/></linearGradient><linearGradient id="d" x1="17.483" x2="17.483" y1="16.747" y2="24.318" gradientUnits="userSpaceOnUse"><stop stop-color="#fff"/><stop offset="1" stop-color="#EEE" stop-opacity="0"/></linearGradient><linearGradient id="e" x1="17.483" x2="17.483" y1="29.667" y2="34.528" gradientUnits="userSpaceOnUse"><stop stop-color="#fff" stop-opacity="0"/><stop offset="1" stop-color="#FAFAFA"/></linearGradient><clipPath id="a"><path fill="#fff" d="M0 0h50v50H0z"/></clipPath></defs></svg>
